svg/file/bill_2_fill.svg

<svg xmlns="http://www.w3.org/2000/svg" width="24" height="24" viewBox="0 0 24 24"><g fill="none" fill-rule="evenodd"><path d="M24,0 L24,24 L0,24 L0,0 L24,0 Z M12.5935,23.2578 L12.5819,23.2595 L12.5109,23.295 L12.4919,23.2987 L12.4767,23.295 L12.4057,23.2595 C12.3958,23.2564 12.387,23.259 12.3821,23.2649 L12.378,23.2758 L12.3609,23.7031 L12.3659,23.7235 L12.3769,23.7357 L12.4805,23.8097 L12.4953,23.8136 L12.5071,23.8097 L12.6107,23.7357 L12.6233,23.7197 L12.6267,23.7031 L12.6096,23.2758 C12.6076,23.2657 12.601,23.2593 12.5935,23.2578 Z M12.8584,23.1453 L12.8445,23.1473 L12.6598,23.2397 L12.6499,23.2499 L12.6472,23.2611 L12.6651,23.6906 L12.6699,23.7034 L12.6784,23.7105 L12.8793,23.8032 C12.8914,23.8069 12.9022,23.803 12.9078,23.7952 L12.9118,23.7812 L12.8777,23.1665 C12.8753,23.1546 12.8674,23.147 12.8584,23.1453 Z M12.143,23.1473 C12.1332,23.1424 12.1222,23.1453 12.1156,23.1526 L12.1099,23.1665 L12.0758,23.7812 C12.0751,23.7927 12.0828,23.8019 12.0926,23.8046 L12.1083,23.8032 L12.3092,23.7105 L12.3186,23.7024 L12.3225,23.6906 L12.3404,23.2611 L12.3372,23.2485 L12.3278,23.2397 L12.143,23.1473 Z"/><path fill="#09244B" d="M18,3 C19.597725,3 20.903664,4.24892392 20.9949075,5.82372764 L21,6 L21,20 C21,20.3623 20.8041,20.6962 20.4878,20.873 C20.2110375,21.0276125 19.8800688,21.0406609 19.5949801,20.9143561 L19.4759,20.8517 L16.75,19.1742 L14.0241,20.8517 C13.7384111,21.0274333 13.3863519,21.0469593 13.085914,20.9102778 L12.9759,20.8517 L10.25,19.1742 L7.5241,20.8517 C7.21556,21.0415 6.82845,21.0497 6.5122,20.873 C6.23108,20.7158444 6.04502765,20.4345605 6.00715331,20.1195383 L6,20 L6,14 L4,14 C3.48716857,14 3.06449347,13.613973 3.0067278,13.1166239 L3,13 L3,5.5 C3,4.1745184 4.03153766,3.08996147 5.33562452,3.00531769 L5.5,3 L18,3 Z M15,12 L11,12 C10.4477,12 10,12.4477 10,13 C10,13.5523 10.4477,14 11,14 L15,14 C15.5523,14 16,13.5523 16,13 C16,12.4477 15.5523,12 15,12 Z M5.5,5 C5.22386,5 5,5.22386 5,5.5 L5,12 L6,12 L6,5.5 C6,5.22386 5.77614,5 5.5,5 Z M16,8 L11,8 C10.4477,8 10,8.44772 10,9 C10,9.51283143 10.386027,9.93550653 10.8833761,9.9932722 L11,10 L16,10 C16.5523,10 17,9.55228 17,9 C17,8.48716857 16.613973,8.06449347 16.1166239,8.0067278 L16,8 Z"/></g></svg>

<svg xmlns="http://www.w3.org/2000/svg" width="24" height="24"><g fill="none" fill-rule="evenodd"><path d="M24 0v24H0V0zM12.594 23.258l-.012.002-.071.035-.02.004-.014-.004-.071-.036c-.01-.003-.019 0-.024.006l-.004.01-.017.428.005.02.01.013.104.074.015.004.012-.004.104-.074.012-.016.004-.017-.017-.427c-.002-.01-.009-.017-.016-.018m.264-.113-.014.002-.184.093-.01.01-.003.011.018.43.005.012.008.008.201.092c.012.004.023 0 .029-.008l.004-.014-.034-.614c-.003-.012-.01-.02-.02-.022m-.715.002a.023.023 0 0 0-.027.006l-.006.014-.034.614c0 .012.007.02.017.024l.015-.002.201-.093.01-.008.003-.011.018-.43-.003-.012-.01-.01z"/><path fill="#09244B" d="M18 3a3 3 0 0 1 2.995 2.824L21 6v14a1 1 0 0 1-1.405.914l-.12-.062-2.725-1.678-2.726 1.678a1 1 0 0 1-.938.058l-.11-.058-2.726-1.678-2.726 1.678a1 1 0 0 1-1.517-.732L6 20v-6H4a1 1 0 0 1-.993-.883L3 13V5.5a2.5 2.5 0 0 1 2.336-2.495L5.5 3zm-3 9h-4a1 1 0 1 0 0 2h4a1 1 0 1 0 0-2M5.5 5a.5.5 0 0 0-.5.5V12h1V5.5a.5.5 0 0 0-.5-.5M16 8h-5a1 1 0 0 0-.117 1.993L11 10h5a1 1 0 0 0 .117-1.993z"/></g></svg>
